X:4007
T:Delia
T:Amorous Goddess, The
R:March
C:Samuel Howard
O:USA
M:4/4
L:1/8
Q:1/4=100
K:D
A2|"D"d2 d/e/f "A7"e2 ac|"Bm"d2 "Em"g<e "D"d2 "A7"c2|\
"D"dA "D7"B=c "G"B^c "D"d2|"Em"e/f/g "D"f2 "A7"e4|
"D"d2 d/e/f "A7"e2 ac|"Bm"d2 "Em"g<e "D"d2 "A7"c2|\
"D"dA "D7"B=c "Em"B2 ge|"D"d2 "A7"c2 "D"d4||
"A7"c2 "D"d/e/f "A"e2 dc|"Bm"d2 "E7"cB "A"c4|\
"A"ec BA "D"F^G "A"A2|"Bm"d2 c2 "E7"B4|
"A"e2 "D"df "A"e2 dc|"Bm"d2 "E7"bd "A"c4|\
"A"ec BA "Bm"F2 dB|"A"A2 "E7"^G2 "A"A4||
"D"d2 d/e/f "A"e2 ac|"Bm"d2 "Em"g<e "D"d2 "A7"c2|\
"D"dA "D7"B=c "G"B^c "D"d2|"Em"e/f/g "D"f2 "A7"e4|
"D"d2 d/e/f "A"e2 ac|"Bm"d2 "Em"g<e "D"d2 "A7"c2|\
"D"dA "D7"B=c "Em"B2 ge|"D"d2 "A7"c.B//c// "D"d4|]

